icons/delete-bin-7-fill.svg

<svg viewBox="0 0 24 24" fill="currentColor" xmlns="http://www.w3.org/2000/svg"><path d="M7 6V3C7 2.44772 7.44772 2 8 2H16C16.5523 2 17 2.44772 17 3V6H22V8H20V21C20 21.5523 19.5523 22 19 22H5C4.44772 22 4 21.5523 4 21V8H2V6H7ZM9 4V6H15V4H9Z"/></svg>

<svg xmlns="http://www.w3.org/2000/svg" viewBox="0 0 24 24">
    <g>
        <path fill="none" d="M0 0h24v24H0z"/>
        <path d="M7 6V3a1 1 0 0 1 1-1h8a1 1 0 0 1 1 1v3h5v2h-2v13a1 1 0 0 1-1 1H5a1 1 0 0 1-1-1V8H2V6h5zm2-2v2h6V4H9z"/>
    </g>
</svg>
